src/Pure/16/symbolic/actions/contact-new-symbolic.svg

<?xml version="1.0" encoding="UTF-8" standalone="no"?>
<svg
   height="16"
   width="16"
   version="1.1"
   id="svg2"
   sodipodi:docname="contact-new-symbolic.svg"
   inkscape:version="1.4.2 (ebf0e940d0, 2025-05-08)"
   xmlns:inkscape="http://www.inkscape.org/namespaces/inkscape"
   xmlns:sodipodi="http://sodipodi.sourceforge.net/DTD/sodipodi-0.dtd"
   xmlns="http://www.w3.org/2000/svg"
   xmlns:svg="http://www.w3.org/2000/svg">
  <defs
     id="defs2">
     <style id="current-color-scheme" type="text/css">
        .ColorScheme-Text { color:#363636; }
     </style>
  </defs>
  <sodipodi:namedview
     id="namedview2"
     pagecolor="#ffffff"
     bordercolor="#000000"
     borderopacity="0.25"
     inkscape:showpageshadow="2"
     inkscape:pageopacity="0.0"
     inkscape:pagecheckerboard="0"
     inkscape:deskcolor="#d1d1d1"
     inkscape:zoom="49.6875"
     inkscape:cx="8"
     inkscape:cy="8"
     inkscape:window-width="1920"
     inkscape:window-height="1010"
     inkscape:window-x="0"
     inkscape:window-y="0"
     inkscape:window-maximized="1"
     inkscape:current-layer="svg2" />
  <path
     id="path1"
     style="fill:currentColor"
     class="ColorScheme-Text"
     d="M 8 1 C 7.471 1 6.9678594 1.0979219 6.5058594 1.2949219 C 6.0458594 1.4829219 5.6378281 1.7582344 5.2988281 2.1152344 L 5.296875 2.1191406 L 5.2949219 2.1210938 A 3.82 3.82 0 0 0 4.5292969 3.4003906 A 4.551 4.551 0 0 0 4.2597656 5.0019531 C 4.2597656 5.5819531 4.3462969 6.1232812 4.5292969 6.6132812 C 4.7092969 7.0952813 4.9649219 7.5209063 5.2949219 7.8789062 L 5.296875 7.8808594 L 5.2988281 7.8828125 C 5.6368281 8.2388125 6.042 8.5188437 6.5 8.7148438 L 6.5039062 8.7167969 L 6.5078125 8.71875 C 6.9698125 8.90675 7.472 9 8 9 C 8.528 9 9.0282344 8.90675 9.4902344 8.71875 L 9.4902344 8.7167969 A 3.47 3.47 0 0 0 10.679688 7.8828125 C 11.019687 7.5248125 11.280937 7.0972812 11.460938 6.6132812 C 11.645937 6.1232812 11.732422 5.582 11.732422 5 L 11.740234 5 C 11.740234 4.427 11.653703 3.8913438 11.470703 3.4023438 A 3.692 3.692 0 0 0 10.689453 2.1191406 A 3.332 3.332 0 0 0 9.4941406 1.2949219 A 3.78 3.78 0 0 0 8 1 z M 8 2 C 8.406 2 8.7695625 2.0728438 9.1015625 2.2148438 L 9.1113281 2.21875 L 9.1210938 2.2207031 A 2.3 2.3 0 0 1 9.9589844 2.796875 L 9.9589844 2.8066406 C 10.198984 3.0596406 10.389344 3.3700938 10.527344 3.7460938 L 10.527344 3.7519531 C 10.657344 4.1029531 10.721563 4.504125 10.726562 4.953125 L 10.726562 5 C 10.726562 5.482 10.654531 5.8997187 10.519531 6.2617188 L 10.519531 6.2636719 A 2.708 2.708 0 0 1 9.9492188 7.1953125 L 9.9394531 7.1992188 L 9.9394531 7.203125 C 9.7054531 7.456125 9.4257969 7.652875 9.0917969 7.796875 A 2.889 2.889 0 0 1 8 8 C 7.59 8 7.223625 7.9279688 6.890625 7.7929688 L 6.8867188 7.7929688 A 2.58 2.58 0 0 1 6.0488281 7.2109375 L 5.9980469 7.140625 L 5.9902344 7.1347656 A 2.798 2.798 0 0 1 5.4667969 6.2636719 A 3.595 3.595 0 0 1 5.2597656 5 C 5.2597656 4.529 5.3297969 4.114 5.4667969 3.75 L 5.46875 3.7480469 L 5.46875 3.7441406 C 5.60575 3.3681406 5.7934375 3.0605938 6.0234375 2.8085938 L 6.0351562 2.7988281 C 6.2751563 2.5488281 6.5547656 2.3557031 6.8847656 2.2207031 L 6.890625 2.2167969 L 6.8984375 2.2148438 C 7.2284375 2.0748437 7.594 2 8 2 z M 13 11 L 13 13 L 11 13 L 11 14 L 13 14 L 13 16 L 14 16 L 14 14 L 16 14 L 16 13 L 14 13 L 14 11 L 13 11 z M 8.0292969 11.025391 C 5.1472969 11.025391 3.6001719 11.291203 2.4511719 12.158203 C 1.8761719 12.592203 1.4972031 13.183094 1.2832031 13.871094 C 1.0692031 14.559094 1.002 15.083047 1 15.998047 L 2 16 C 2.002 15.135 2.0722812 14.700016 2.2382812 14.166016 C 2.4042812 13.632016 2.6496875 13.263031 3.0546875 12.957031 C 3.8646875 12.347031 5.2172969 12.023438 8.0292969 12.023438 C 8.7992969 12.023438 9.436 12.053562 10 12.101562 L 10 11.087891 A 27.464 27.464 0 0 0 8.0292969 11.025391 z " />
</svg>

<svg height="16" width="16" xmlns="http://www.w3.org/2000/svg"><g color="#363636" fill="#363636" font-weight="400"><path d="M8 1c-.529 0-1.032.098-1.494.295-.46.188-.868.463-1.207.82l-.002.004-.002.002a3.82 3.82 0 0 0-.766 1.28 4.551 4.551 0 0 0-.27 1.6c0 .58.087 1.122.27 1.612.18.482.436.908.766 1.266l.002.002.002.002c.338.356.743.636 1.201.832l.004.002.004.002C6.97 8.907 7.472 9 8 9s1.028-.093 1.49-.281v-.002a3.47 3.47 0 0 0 1.19-.834c.34-.358.6-.786.78-1.27.185-.49.272-1.031.272-1.613h.008c0-.573-.087-1.109-.27-1.598a3.692 3.692 0 0 0-.78-1.283 3.332 3.332 0 0 0-1.196-.824A3.78 3.78 0 0 0 8 1zm0 1c.406 0 .77.073 1.102.215l.01.004.01.002a2.3 2.3 0 0 1 .837.576v.01c.24.253.431.564.569.94v.005c.13.351.194.753.199 1.202V5c0 .482-.072.9-.207 1.262v.002a2.708 2.708 0 0 1-.57.931l-.01.004v.004c-.234.253-.514.45-.848.594A2.889 2.889 0 0 1 8 8c-.41 0-.777-.072-1.11-.207h-.003a2.58 2.58 0 0 1-.838-.582l-.051-.07-.008-.006a2.798 2.798 0 0 1-.523-.871A3.595 3.595 0 0 1 5.259 5c0-.471.071-.886.208-1.25l.002-.002v-.004c.137-.376.324-.684.554-.936l.012-.01c.24-.25.52-.443.85-.578l.006-.004.008-.002C7.229 2.074 7.594 2 8 2zm.03 9.025c-2.882 0-4.43.266-5.579 1.133-.575.434-.954 1.025-1.168 1.713-.214.688-.281 1.212-.283 2.127L2 16c.002-.865.072-1.3.238-1.834.166-.534.412-.903.817-1.209.81-.61 2.162-.934 4.974-.934.77 0 1.407.031 1.971.079v-1.014a27.464 27.464 0 0 0-1.97-.063z" font-family="Ubuntu" letter-spacing="0" overflow="visible" style="line-height:125%;-inkscape-font-specification:'Ubuntu, Normal';font-variant-ligatures:normal;font-variant-position:normal;font-variant-caps:normal;font-variant-numeric:normal;font-variant-alternates:normal;font-feature-settings:normal;text-indent:0;text-align:start;text-decoration-line:none;text-decoration-style:solid;text-decoration-color:#363636;text-transform:none;text-orientation:mixed;shape-padding:0;isolation:auto;mix-blend-mode:normal" word-spacing="0"/><path d="M13 11v2h-2v1h2v2h1v-2h2v-1h-2v-2z" font-family="sans-serif" overflow="visible" style="line-height:normal;text-indent:0;text-align:start;text-decoration-line:none;text-decoration-style:solid;text-decoration-color:#363636;text-transform:none;isolation:auto;mix-blend-mode:normal;marker:none"/></g></svg>
